Papirus/24x24/apps/half-life-deathmatch.svg

<svg width="24" height="24" version="1.1" xmlns="http://www.w3.org/2000/svg">
 <g>
  <path d="m12 2c-5.5115 0-10 4.489-10 10 0 5.512 4.489 10 10 10s10-4.488 10-10c0-5.511-4.488-10-10-10z" style="fill:#522f17"/>
  <path d="m12 4.5a8 8 0 0 0-8 8 8 8 0 0 0 8 8 8 8 0 0 0 8-8 8 8 0 0 0-8-8zm-3.209 2.3554h3.0654l3.5196 8.951 1.5478-0.5039 0.5156 1.7334-3.338 0.964-2.245-5.6915-3.292 5.1875h-2.0644l4.5976-7.425-0.5156-1.4668h-1.791v-1.749z" style="opacity:.2"/>
  <path d="m12 4a8 8 0 0 0-8 8 8 8 0 0 0 8 8 8 8 0 0 0 8-8 8 8 0 0 0-8-8zm-3.209 2.3554h3.0654l3.5196 8.951 1.5478-0.5039 0.5156 1.7334-3.338 0.964-2.245-5.6915-3.292 5.1875h-2.0644l4.5976-7.425-0.5156-1.4668h-1.791v-1.749z" style="fill:#a38976"/>
  <path d="M 12,2 C 6.4885,2 2,6.489 2,12 2,12.084 2.0038,12.166 2.0058,12.25 2.1395,6.854 6.5725,2.5 12,2.5 c 5.4274,0 9.8605,4.354 9.994,9.75 C 21.996,12.1665 22,12.084 22,12 22,6.489 17.5115,2 12,2 Z" style="fill:#ffffff;opacity:.1"/>
  <path d="m2.0058 12.25c-2e-3 0.084-0.0058 0.166-0.0058 0.25 0 5.512 4.489 10 10 10s10-4.4885 10-10c0-0.084-4e-3 -0.1665-6e-3 -0.25-0.134 5.396-4.566 9.75-9.994 9.75-5.4275 0-9.8605-4.354-9.994-9.75z" style="opacity:.2"/>
 </g>
</svg>

<svg xmlns="http://www.w3.org/2000/svg" width="24" height="24" version="1.1">
 <circle style="opacity:0.2" cx="12" cy="12.5" r="10"/>
 <circle style="fill:#522f17" cx="12" cy="12" r="10"/>
 <path style="opacity:0.1" d="M 12,4.5 A 8,8 0 0 0 4,12.5 8,8 0 0 0 12,20.5 8,8 0 0 0 20,12.5 8,8 0 0 0 12,4.5 Z M 8.791,6.8554 H 11.856 L 15.376,15.806 16.924,15.303 17.439,17.036 14.101,18 11.856,12.308 8.5644,17.496 H 6.5 L 11.098,10.071 10.582,8.6041 H 8.791 V 6.8551 Z"/>
 <path style="fill:#a38976" d="M 12,4 A 8,8 0 0 0 4,12 8,8 0 0 0 12,20 8,8 0 0 0 20,12 8,8 0 0 0 12,4 Z M 8.791,6.3554 H 11.856 L 15.376,15.306 16.924,14.803 17.439,16.536 14.101,17.5 11.856,11.808 8.5644,16.996 H 6.5 L 11.098,9.5709 10.582,8.1041 H 8.791 V 6.3551 Z"/>
 <path style="opacity:0.1;fill:#ffffff" d="M 12,2 C 6.4885,2 2,6.489 2,12 2,12.084 2.0038,12.166 2.0058,12.25 2.1395,6.854 6.5725,2.5 12,2.5 17.427,2.5 21.861,6.854 21.994,12.25 21.996,12.166 22,12.084 22,12 22,6.489 17.512,2 12,2 Z"/>
</svg>
